Origami/48x48/apps/TeighaViewer.svg

<svg width="48" height="48" version="1.1" viewBox="0 0 48 48" xmlns="http://www.w3.org/2000/svg">
 <path d="M 23.999999,17 A 14.000001,14.000001 0 0 0 10,30.999999 14.000001,14.000001 0 0 0 23.999999,45 14.000001,14.000001 0 0 0 38,30.999999 14.000001,14.000001 0 0 0 23.999999,17 Z" style="opacity:.2"/>
 <path d="M 23.999999,16 A 14.000001,14.000001 0 0 0 10,29.999999 14.000001,14.000001 0 0 0 23.999999,44 14.000001,14.000001 0 0 0 38,29.999999 14.000001,14.000001 0 0 0 23.999999,16 Z" style="fill:#ba122b"/>
 <path d="M 23.999999,5.9999997 A 12.000001,12.000001 0 0 0 12,17.999999 12.000001,12.000001 0 0 0 23.999999,30 12.000001,12.000001 0 0 0 36,17.999999 12.000001,12.000001 0 0 0 23.999999,5.9999997 Z" style="opacity:.2"/>
 <path d="M 23.999999,4.9999997 A 12.000001,12.000001 0 0 0 12,16.999999 12.000001,12.000001 0 0 0 23.999999,29 12.000001,12.000001 0 0 0 36,16.999999 12.000001,12.000001 0 0 0 23.999999,4.9999997 Z" style="fill:#e9314e"/>
 <path d="M 24 5 A 12.000001 12.000001 0 0 0 12 17 A 12.000001 12.000001 0 0 0 12.019531 17.40625 A 12.000001 12.000001 0 0 1 24 6 A 12.000001 12.000001 0 0 1 35.980469 17.59375 A 12.000001 12.000001 0 0 0 36 17 A 12.000001 12.000001 0 0 0 24 5 z" style="fill:#ffffff;opacity:.2"/>
 <path d="M 14.999999,14 A 9.0000009,9.0000009 0 0 0 6,22.999999 9.0000009,9.0000009 0 0 0 14.999999,32 9.0000009,9.0000009 0 0 0 24,22.999999 9.0000009,9.0000009 0 0 0 14.999999,14 Z" style="opacity:.2"/>
 <path d="M 14.999999,13 A 9.0000009,9.0000009 0 0 0 6,21.999999 9.0000009,9.0000009 0 0 0 14.999999,31 9.0000009,9.0000009 0 0 0 24,21.999999 9.0000009,9.0000009 0 0 0 14.999999,13 Z" style="fill:#ef6e82"/>
 <g transform="translate(0,1)" style="opacity:.2">
  <path d="m15 15a7.0000007 7.0000007 0 0 0 -7 7 7.0000007 7.0000007 0 0 0 7 7 7.0000007 7.0000007 0 0 0 7 -7 7.0000007 7.0000007 0 0 0 -7 -7zm0 2a5.0000005 5.0000005 0 0 1 5 5 5.0000005 5.0000005 0 0 1 -5 5 5.0000005 5.0000005 0 0 1 -5 -5 5.0000005 5.0000005 0 0 1 5 -5z"/>
  <path d="m24 18a12.000001 12.000001 0 0 0 -12 12 12.000001 12.000001 0 0 0 12 12 12.000001 12.000001 0 0 0 12 -12 12.000001 12.000001 0 0 0 -12 -12zm0 2a10.000001 10.000001 0 0 1 10 10 10.000001 10.000001 0 0 1 -10 10 10.000001 10.000001 0 0 1 -10 -10 10.000001 10.000001 0 0 1 10 -10z"/>
  <path d="m24 7a10.000001 10.000001 0 0 0 -10 10 10.000001 10.000001 0 0 0 10 10 10.000001 10.000001 0 0 0 10 -10 10.000001 10.000001 0 0 0 -10 -10zm0 2a8.0000008 8.0000008 0 0 1 8 8 8.0000008 8.0000008 0 0 1 -8 8 8.0000008 8.0000008 0 0 1 -8 -8 8.0000008 8.0000008 0 0 1 8 -8z"/>
 </g>
 <path d="m15 15a7.0000007 7.0000007 0 0 0 -7 7 7.0000007 7.0000007 0 0 0 7 7 7.0000007 7.0000007 0 0 0 7 -7 7.0000007 7.0000007 0 0 0 -7 -7zm0 2a5.0000005 5.0000005 0 0 1 5 5 5.0000005 5.0000005 0 0 1 -5 5 5.0000005 5.0000005 0 0 1 -5 -5 5.0000005 5.0000005 0 0 1 5 -5z" style="fill:#ffffff"/>
 <path d="m24 18a12.000001 12.000001 0 0 0 -12 12 12.000001 12.000001 0 0 0 12 12 12.000001 12.000001 0 0 0 12 -12 12.000001 12.000001 0 0 0 -12 -12zm0 2a10.000001 10.000001 0 0 1 10 10 10.000001 10.000001 0 0 1 -10 10 10.000001 10.000001 0 0 1 -10 -10 10.000001 10.000001 0 0 1 10 -10z" style="fill:#ffffff"/>
 <path d="m24 7a10.000001 10.000001 0 0 0 -10 10 10.000001 10.000001 0 0 0 10 10 10.000001 10.000001 0 0 0 10 -10 10.000001 10.000001 0 0 0 -10 -10zm0 2a8.0000008 8.0000008 0 0 1 8 8 8.0000008 8.0000008 0 0 1 -8 8 8.0000008 8.0000008 0 0 1 -8 -8 8.0000008 8.0000008 0 0 1 8 -8z" style="fill:#ffffff"/>
 <path d="M 15 13 A 9.0000009 9.0000009 0 0 0 6 22 A 9.0000009 9.0000009 0 0 0 6.0214844 22.423828 A 9.0000009 9.0000009 0 0 1 15 14 A 9.0000009 9.0000009 0 0 1 23.978516 22.576172 A 9.0000009 9.0000009 0 0 0 24 22 A 9.0000009 9.0000009 0 0 0 15 13 z" style="fill:#ffffff;opacity:.1"/>
</svg>

<svg xmlns="http://www.w3.org/2000/svg" width="48" height="48" version="1.1" viewBox="0 0 48 48">
 <path style="opacity:0.2" d="M 23.999999,17 A 14.000001,14.000001 0 0 0 10,30.999999 14.000001,14.000001 0 0 0 23.999999,45 14.000001,14.000001 0 0 0 38,30.999999 14.000001,14.000001 0 0 0 23.999999,17 Z"/>
 <path style="fill:#ba122b" d="M 23.999999,16 A 14.000001,14.000001 0 0 0 10,29.999999 14.000001,14.000001 0 0 0 23.999999,44 14.000001,14.000001 0 0 0 38,29.999999 14.000001,14.000001 0 0 0 23.999999,16 Z"/>
 <path style="opacity:0.2" d="M 23.999999,5.9999997 A 12.000001,12.000001 0 0 0 12,17.999999 12.000001,12.000001 0 0 0 23.999999,30 12.000001,12.000001 0 0 0 36,17.999999 12.000001,12.000001 0 0 0 23.999999,5.9999997 Z"/>
 <path style="fill:#e9314e" d="M 23.999999,4.9999997 A 12.000001,12.000001 0 0 0 12,16.999999 12.000001,12.000001 0 0 0 23.999999,29 12.000001,12.000001 0 0 0 36,16.999999 12.000001,12.000001 0 0 0 23.999999,4.9999997 Z"/>
 <path style="fill:#ffffff;opacity:0.2" d="M 24 5 A 12.000001 12.000001 0 0 0 12 17 A 12.000001 12.000001 0 0 0 12.019531 17.40625 A 12.000001 12.000001 0 0 1 24 6 A 12.000001 12.000001 0 0 1 35.980469 17.59375 A 12.000001 12.000001 0 0 0 36 17 A 12.000001 12.000001 0 0 0 24 5 z"/>
 <path style="opacity:0.2" d="M 14.999999,14 A 9.0000009,9.0000009 0 0 0 6,22.999999 9.0000009,9.0000009 0 0 0 14.999999,32 9.0000009,9.0000009 0 0 0 24,22.999999 9.0000009,9.0000009 0 0 0 14.999999,14 Z"/>
 <path style="fill:#ef6e82" d="M 14.999999,13 A 9.0000009,9.0000009 0 0 0 6,21.999999 9.0000009,9.0000009 0 0 0 14.999999,31 9.0000009,9.0000009 0 0 0 24,21.999999 9.0000009,9.0000009 0 0 0 14.999999,13 Z"/>
 <g style="opacity:0.2" transform="translate(0,1)">
  <path d="m 15,15 a 7.0000007,7.0000007 0 0 0 -7,7 7.0000007,7.0000007 0 0 0 7,7 7.0000007,7.0000007 0 0 0 7,-7 7.0000007,7.0000007 0 0 0 -7,-7 z m 0,2 a 5.0000005,5.0000005 0 0 1 5,5 5.0000005,5.0000005 0 0 1 -5,5 5.0000005,5.0000005 0 0 1 -5,-5 5.0000005,5.0000005 0 0 1 5,-5 z"/>
  <path d="M 24,18 A 12.000001,12.000001 0 0 0 12,30 12.000001,12.000001 0 0 0 24,42 12.000001,12.000001 0 0 0 36,30 12.000001,12.000001 0 0 0 24,18 Z m 0,2 A 10.000001,10.000001 0 0 1 34,30 10.000001,10.000001 0 0 1 24,40 10.000001,10.000001 0 0 1 14,30 10.000001,10.000001 0 0 1 24,20 Z"/>
  <path d="M 24,7 A 10.000001,10.000001 0 0 0 14,17 10.000001,10.000001 0 0 0 24,27 10.000001,10.000001 0 0 0 34,17 10.000001,10.000001 0 0 0 24,7 Z m 0,2 a 8.0000008,8.0000008 0 0 1 8,8 8.0000008,8.0000008 0 0 1 -8,8 8.0000008,8.0000008 0 0 1 -8,-8 8.0000008,8.0000008 0 0 1 8,-8 z"/>
 </g>
 <g>
  <path style="fill:#ffffff" d="m 15,15 a 7.0000007,7.0000007 0 0 0 -7,7 7.0000007,7.0000007 0 0 0 7,7 7.0000007,7.0000007 0 0 0 7,-7 7.0000007,7.0000007 0 0 0 -7,-7 z m 0,2 a 5.0000005,5.0000005 0 0 1 5,5 5.0000005,5.0000005 0 0 1 -5,5 5.0000005,5.0000005 0 0 1 -5,-5 5.0000005,5.0000005 0 0 1 5,-5 z"/>
  <path style="fill:#ffffff" d="M 24 18 A 12.000001 12.000001 0 0 0 12 30 A 12.000001 12.000001 0 0 0 24 42 A 12.000001 12.000001 0 0 0 36 30 A 12.000001 12.000001 0 0 0 24 18 z M 24 20 A 10.000001 10.000001 0 0 1 34 30 A 10.000001 10.000001 0 0 1 24 40 A 10.000001 10.000001 0 0 1 14 30 A 10.000001 10.000001 0 0 1 24 20 z"/>
  <path style="fill:#ffffff" d="M 24,7 A 10.000001,10.000001 0 0 0 14,17 10.000001,10.000001 0 0 0 24,27 10.000001,10.000001 0 0 0 34,17 10.000001,10.000001 0 0 0 24,7 Z m 0,2 a 8.0000008,8.0000008 0 0 1 8,8 8.0000008,8.0000008 0 0 1 -8,8 8.0000008,8.0000008 0 0 1 -8,-8 8.0000008,8.0000008 0 0 1 8,-8 z"/>
 </g>
 <path style="fill:#ffffff;opacity:0.1" d="M 15 13 A 9.0000009 9.0000009 0 0 0 6 22 A 9.0000009 9.0000009 0 0 0 6.0214844 22.423828 A 9.0000009 9.0000009 0 0 1 15 14 A 9.0000009 9.0000009 0 0 1 23.978516 22.576172 A 9.0000009 9.0000009 0 0 0 24 22 A 9.0000009 9.0000009 0 0 0 15 13 z"/>
</svg>
